src/icons/social-twitter.svg

<?xml version="1.0" encoding="UTF-8"?>
<svg width="512px" height="512px" viewBox="0 0 512 512" version="1.1" xmlns="http://www.w3.org/2000/svg" xmlns:xlink="http://www.w3.org/1999/xlink">
    <!-- Generator: Sketch 62 (91390) - https://sketch.com -->
    <title>social-twitter</title>
    <desc>Created with Sketch.</desc>
    <g id="social-twitter" stroke="none" stroke-width="1" fill="none" fill-rule="evenodd">
        <path d="M426,144.05 C413.5,149.55 400.1,153.25 385.9,155.15 C400.512426,146.474056 411.435467,132.7402 416.6,116.55 C403.1,124.55 388.2,130.35 372.3,133.45 C359.5,119.75 341.4,111.25 321.3,111.25 C282.7,111.25 251.6,142.45 251.6,181.05 C251.6,186.55 252.1,191.85 253.4,196.95 C195.4,194.05 144,166.25 109.5,123.95 C103.6,134.25 100,146.25 100,159.05 C100,183.25 112.4,204.65 131.1,217.15 C119.6,216.85 108.8,213.65 99.4,208.45 L99.4,209.25 C99.4,243.15 123.4,271.35 155.4,277.65 C149.6,279.25 143.4,280.05 137,280.05 C132.5,280.05 128.2,279.65 123.9,278.75 C132.7,306.45 158.5,326.65 189.1,327.25 C165.3,345.95 135.1,357.15 102.4,357.15 C96.8,357.15 91.2,356.85 85.7,356.15 C116.5,376.25 153.2,387.75 192.5,387.75 C321,387.75 391.2,281.25 391.2,189.05 C391.2,186.05 391.1,182.95 391,180.05 C404.9,170.35 416.6,158.15 426,144.05 Z" id="Path" fill="#000000" fill-rule="nonzero"></path>
    </g>
</svg>

<svg xmlns="http://www.w3.org/2000/svg" width="512" height="512" viewBox="0 0 512 512">
    <path d="M426 144.05c-12.5 5.5-25.9 9.2-40.1 11.1a69.43 69.43 0 0 0 30.7-38.6c-13.5 8-28.4 13.8-44.3 16.9-12.8-13.7-30.9-22.2-51-22.2-38.6 0-69.7 31.2-69.7 69.8 0 5.5.5 10.8 1.8 15.9-58-2.9-109.4-30.7-143.9-73-5.9 10.3-9.5 22.3-9.5 35.1 0 24.2 12.4 45.6 31.1 58.1-11.5-.3-22.3-3.5-31.7-8.7v.8c0 33.9 24 62.1 56 68.4-5.8 1.6-12 2.4-18.4 2.4-4.5 0-8.8-.4-13.1-1.3 8.8 27.7 34.6 47.9 65.2 48.5-23.8 18.7-54 29.9-86.7 29.9-5.6 0-11.2-.3-16.7-1 30.8 20.1 67.5 31.6 106.8 31.6 128.5 0 198.7-106.5 198.7-198.7 0-3-.1-6.1-.2-9 13.9-9.7 25.6-21.9 35-36z"/>
</svg>
